actions/24/tool-animator.svg

<svg xmlns="http://www.w3.org/2000/svg" viewBox="0 0 24 24" width="24" height="24">
  <defs id="defs3051">
    <style type="text/css" id="current-color-scheme">.ColorScheme-Text {color:#fcfcfc;}</style>
  </defs>
  <g transform="translate(1,1)">
    <path style="fill:currentColor;fill-opacity:1;stroke:none" d="m 3,6 c 0,3 0,7 0,10 0,3 3,3 3,3 h 10 c 0,0 3,0 3,-3 0,-3 0,-11.0996094 0,-11.0996094 L 7,6 V 5 L 19,4 V 3 H 6 C 6,3 3,3 3,6 Z m 1,2 h 14 v 2 H 4 Z m 0,3 h 3 v 3 H 4 Z m 4,0 h 6 v 3 H 8 Z m 7,0 h 3 v 3 H 15 Z M 4,15 h 10 v 1 H 4 Z m 11,0 h 3 v 1 H 15 Z M 4,17 h 10 1 3 c 0,0 -0.335267,1 -2,1 C 14.335267,18 6.4545281,18 5.4545281,18 4.4545281,18 4,17 4,17 Z" class="ColorScheme-Text"/>
  </g>
</svg>

<svg xmlns="http://www.w3.org/2000/svg" viewBox="0 0 24 24" width="24" height="24">
  <defs id="defs3051">
    <style type="text/css" id="current-color-scheme">
      .ColorScheme-Text {
        color:#eff0f1;
      }
      </style>
  </defs>
  <g transform="translate(1,1)">
    <path style="fill:currentColor;fill-opacity:1;stroke:none" d="M 3 3 L 3 7 L 3 8 L 3 18 L 3 19 L 19 19 L 19 18 L 19 17 L 19 16 L 19 8 L 19 7 L 19 4.9003906 L 7 6 L 7 5 L 19 4 L 19 3 L 7 3 L 3 3 z M 4 8 L 18 8 L 18 10 L 4 10 L 4 8 z M 4 11 L 7 11 L 7 14 L 4 14 L 4 11 z M 8 11 L 14 11 L 14 14 L 8 14 L 8 11 z M 15 11 L 18 11 L 18 14 L 15 14 L 15 11 z M 4 15 L 14 15 L 14 16 L 4 16 L 4 15 z M 15 15 L 18 15 L 18 16 L 15 16 L 15 15 z M 4 17 L 14 17 L 15 17 L 18 17 L 18 18 L 4 18 L 4 17 z " class="ColorScheme-Text"/>
  </g>
</svg>
